src/assets/langchain.svg

<svg xmlns="http://www.w3.org/2000/svg" xmlns:xlink="http://www.w3.org/1999/xlink" version="1.1" width="1080" height="1080" viewBox="0 0 1080 1080" xml:space="preserve">
<desc>Created with Fabric.js 5.2.4</desc>
<defs>
</defs>
<g transform="matrix(1 0 0 1 540 540)" id="8466f4df-1058-4dab-9f41-78977ad22046"  >
<rect style="stroke: none; stroke-width: 1; stroke-dasharray: none; stroke-linecap: butt; stroke-dashoffset: 0; stroke-linejoin: miter; stroke-miterlimit: 4; fill: rgb(255,255,255); fill-rule: nonzero; opacity: 1; visibility: hidden;" vector-effect="non-scaling-stroke"  x="-540" y="-540" rx="0" ry="0" width="1080" height="1080" />
</g>
<g transform="matrix(1 0 0 1 540 540)" id="01c10a51-cf7a-48a7-9f1a-ce923155fe73"  >
</g>
<g transform="matrix(1 0 0 1 540 540)"  >
<g style="" vector-effect="non-scaling-stroke"   >
		<g transform="matrix(0.67 0 0 0.67 1.16 0.26)"  >
<path style="stroke: none; stroke-width: 1; stroke-dasharray: none; stroke-linecap: butt; stroke-dashoffset: 0; stroke-linejoin: miter; stroke-miterlimit: 4; fill: rgb(18,102,102); fill-rule: nonzero; opacity: 1;" vector-effect="non-scaling-stroke"  transform=" translate(-13.74, -12.39)" d="M 8.373 14.538 C 8.386 14.478 8.396999999999998 14.419 8.411 14.367 L 8.472 14.514000000000001 C 8.587 14.797 8.700999999999999 15.078000000000001 8.978 15.237000000000002 C 8.966 15.495000000000001 8.644 15.599000000000002 8.426 15.567000000000002 C 8.378 15.452000000000002 8.311 15.337000000000002 8.171 15.401000000000002 C 8.027999999999999 15.458000000000002 7.8709999999999996 15.391000000000002 7.904999999999999 15.214000000000002 C 8.238 15.201000000000002 8.312 14.837000000000002 8.373 14.538000000000002 z M 18.385 9.21 C 18.067 9.21 17.769000000000002 9.333 17.546000000000003 9.556000000000001 L 16.644000000000002 10.456000000000001 C 16.400076124577275 10.699451897713875 16.27477145162141 11.037372662973855 16.301000000000002 11.381000000000002 L 16.307000000000002 11.438000000000002 C 16.339000000000002 11.703000000000003 16.456000000000003 11.942000000000002 16.644000000000002 12.129000000000003 C 16.774 12.259000000000004 16.917 12.341000000000003 17.091 12.399000000000003 C 17.143952812938398 12.686345281204462 17.051500525135435 12.981294280349143 16.844 13.187000000000003 L 16.788 13.242000000000003 C 16.494131812425117 13.145632202752337 16.227206857873146 12.981159830242778 16.009 12.762000000000002 C 15.708 12.462000000000002 15.509 12.082000000000003 15.433 11.666000000000002 L 15.423 11.608000000000002 L 15.377 11.645000000000003 C 15.347000000000001 11.670000000000003 15.317 11.697000000000003 15.289000000000001 11.725000000000003 L 14.387000000000002 12.624000000000002 C 14.047857197366833 12.962737970836184 13.946639808898604 13.472646836080065 14.130687907390142 13.91523869197638 C 14.314736005881677 14.357830547872695 14.74766855241202 14.645617657968657 15.227000000000002 14.644000000000002 C 15.531000000000002 14.644000000000002 15.834000000000001 14.528000000000002 16.065 14.297000000000002 L 16.967000000000002 13.397000000000002 C 17.252609539687306 13.110562163599528 17.37206865832928 12.698052110562 17.283719853211544 12.303319375769904 C 17.195371048093804 11.90858664097781 16.91146320544616 11.586357899604689 16.531000000000002 11.449000000000002 C 16.478546601494934 11.136682445968528 16.581533651449835 10.818392758970228 16.807000000000002 10.596000000000002 C 17.109 10.699000000000002 17.377000000000002 10.866000000000001 17.603 11.091000000000001 C 17.903000000000002 11.391000000000002 18.103 11.770000000000001 18.178 12.188 L 18.188000000000002 12.246 L 18.235000000000003 12.209 C 18.265000000000004 12.184 18.295 12.157 18.323000000000004 12.129 L 19.225000000000005 11.229 C 19.56518075043044 10.890621751442962 19.66705212983269 10.380170716871095 19.482819272499462 9.937134559950719 C 19.298586415166238 9.494098403030343 18.86480827849056 9.206392711778012 18.385000000000005 9.209 z" stroke-linecap="round" />
</g>
		<g transform="matrix(0.67 0 0 0.67 0 0)"  >
<path style="stroke: none; stroke-width: 1; stroke-dasharray: none; stroke-linecap: butt; stroke-dashoffset: 0; stroke-linejoin: miter; stroke-miterlimit: 4; fill: rgb(18,102,102); fill-rule: evenodd; opacity: 1;" vector-effect="non-scaling-stroke"  transform=" translate(-12, -12)" d="M 17.901 5.92 L 6.1 5.92 C 2.736 5.92 0 8.648 0 12.002 C 0 15.356000000000002 2.736 18.085 6.099 18.085 L 17.9 18.085 C 21.262999999999998 18.085 23.999 15.356000000000002 23.999 12.002 C 23.999 8.648 21.264 5.92 17.901 5.92 z M 12.08 15.456 C 11.885 15.495999999999999 11.666 15.503 11.518 15.347999999999999 C 11.473 15.449 11.382000000000001 15.425999999999998 11.297 15.405 C 11.276868912345961 15.399492208280071 11.256518098605598 15.394821529716708 11.236 15.391 L 11.21 15.465 C 10.881 15.487 10.635000000000002 15.152 10.478000000000002 14.9 C 10.32417798976973 14.820456870144131 10.166295023195786 14.7490256759648 10.005 14.686 C 9.833 14.616 9.66 14.545 9.496 14.454 C 9.49242806072765 14.512260667304798 9.49109374514668 14.570636973972332 9.492 14.629000000000003 C 9.49 14.877 9.488000000000001 15.139000000000001 9.265 15.289000000000001 C 9.258000000000001 15.588000000000001 9.501000000000001 15.585 9.741 15.582 C 9.948 15.58 10.151 15.577 10.187999999999999 15.770000000000001 C 10.171999999999999 15.772000000000002 10.155 15.772000000000002 10.137999999999998 15.772000000000002 C 10.091999999999999 15.772000000000002 10.045999999999998 15.772000000000002 10.010999999999997 15.807000000000002 C 9.893999999999997 15.920000000000002 9.768999999999998 15.871000000000002 9.638999999999998 15.820000000000002 C 9.518999999999998 15.773000000000001 9.395999999999997 15.725000000000001 9.271999999999998 15.800000000000002 C 9.159999999999998 15.856000000000002 9.080999999999998 15.910000000000002 9.009999999999998 15.956000000000003 C 8.851951696262555 16.07634699426641 8.660522124732886 16.14481450525147 8.461999999999998 16.152000000000005 C 8.437999999999999 16.116000000000003 8.447999999999999 16.092000000000006 8.467999999999998 16.071000000000005 C 8.483457252751013 16.053223875703438 8.497817185492131 16.034522567947562 8.510999999999997 16.015000000000004 C 8.529999999999998 15.986000000000004 8.545999999999998 15.957000000000004 8.561999999999998 15.929000000000004 C 8.615999999999998 15.834000000000003 8.664999999999997 15.746000000000004 8.803999999999998 15.706000000000003 C 8.618999999999998 15.677000000000003 8.459999999999999 15.762000000000002 8.303999999999998 15.846000000000004 L 8.299999999999999 15.848000000000004 L 8.235 15.882000000000005 C 8.138 15.922000000000004 8.081 15.891000000000005 8.023 15.858000000000006 C 7.941 15.813000000000006 7.8549999999999995 15.765000000000006 7.646999999999999 15.898000000000005 C 7.606999999999999 15.866000000000005 7.627 15.838000000000005 7.648999999999999 15.812000000000005 C 7.739999999999999 15.702000000000005 7.858999999999999 15.685000000000004 7.993999999999999 15.692000000000005 C 7.642999999999999 15.496000000000006 7.389999999999999 15.634000000000006 7.183999999999999 15.747000000000005 C 7.001999999999999 15.847000000000005 6.856999999999999 15.926000000000005 6.712999999999999 15.734000000000005 C 6.647999999999999 15.752000000000006 6.610999999999999 15.798000000000005 6.574999999999999 15.844000000000005 C 6.560463287726609 15.863586593721163 6.544768624335031 15.882286618187724 6.528 15.900000000000004 C 6.492999999999999 15.861000000000004 6.5009999999999994 15.816000000000004 6.51 15.770000000000003 C 6.513332661214474 15.751434552525925 6.516001029473154 15.732755974715172 6.518 15.714000000000004 L 6.491 15.703000000000005 C 6.438 15.681000000000004 6.385999999999999 15.659000000000004 6.401 15.578000000000005 C 6.284 15.538000000000006 6.201 15.608000000000004 6.115 15.673000000000005 C 6.061 15.631000000000006 6.105 15.577000000000005 6.147 15.526000000000005 C 6.166 15.502000000000006 6.184 15.480000000000006 6.192 15.460000000000004 C 6.23 15.394000000000004 6.295 15.392000000000005 6.3580000000000005 15.390000000000004 C 6.412000000000001 15.390000000000004 6.466 15.388000000000003 6.503 15.348000000000004 C 6.636 15.272000000000004 6.8 15.311000000000003 6.965 15.350000000000005 C 7.079470658539357 15.385427016412137 7.199376763374121 15.399991882253648 7.319 15.393000000000004 C 7.522 15.419000000000004 7.773 15.211000000000004 7.671 15.003000000000004 C 7.485 14.767000000000003 7.487 14.467000000000004 7.488 14.179000000000004 L 7.488 14.034000000000004 C 7.472 13.924000000000005 7.316000000000001 13.798000000000004 7.16 13.671000000000005 C 7.04 13.574000000000005 6.92 13.477000000000004 6.862 13.387000000000004 C 6.702 13.207000000000004 6.577 13.000000000000004 6.453 12.794000000000004 L 6.438000000000001 12.769000000000004 C 6.226000000000001 12.360000000000003 6.141000000000001 11.898000000000003 6.056000000000001 11.437000000000003 C 5.953000000000001 10.883000000000003 5.851000000000001 10.331000000000003 5.530000000000001 9.875000000000004 C 5.264000000000001 10.021000000000004 4.918000000000001 9.952000000000004 4.689000000000001 9.755000000000004 C 4.569000000000001 9.865000000000004 4.559000000000001 10.007000000000005 4.551000000000001 10.158000000000005 L 4.550000000000001 10.172000000000004 C 4.253000000000001 9.875000000000004 4.290000000000001 9.316000000000004 4.527000000000001 8.986000000000004 C 4.624000000000001 8.856000000000003 4.740000000000001 8.749000000000004 4.869000000000001 8.655000000000005 C 4.899000000000001 8.633000000000004 4.909000000000001 8.613000000000005 4.908 8.580000000000005 C 5.143000000000001 7.526000000000005 6.744000000000001 7.730000000000006 7.25 8.476000000000006 C 7.417 8.685000000000006 7.531 8.924000000000007 7.645 9.163000000000006 C 7.782 9.450000000000006 7.917999999999999 9.736000000000006 8.145 9.969000000000005 C 8.365 10.209000000000005 8.597 10.438000000000004 8.828999999999999 10.667000000000005 C 9.187999999999999 11.021000000000004 9.546999999999999 11.375000000000005 9.860999999999999 11.771000000000004 C 10.350999999999999 12.367000000000004 10.7 13.065000000000005 11.004999999999999 13.769000000000004 C 11.055 13.862000000000004 11.084999999999999 13.964000000000004 11.114999999999998 14.065000000000003 C 11.158999999999999 14.217000000000002 11.203999999999999 14.368000000000004 11.314999999999998 14.488000000000003 C 11.340999999999998 14.524000000000003 11.398999999999997 14.577000000000004 11.463999999999997 14.638000000000003 C 11.619999999999997 14.783000000000003 11.820999999999996 14.970000000000004 11.752999999999997 15.053000000000003 C 11.765768147388586 15.075950614603867 11.782728077787581 15.09630253108266 11.802999999999997 15.113000000000003 C 11.834999999999997 15.143000000000002 11.876999999999997 15.173000000000004 11.918999999999997 15.203000000000003 C 12.040999999999997 15.291000000000002 12.168999999999997 15.383000000000003 12.078999999999997 15.456000000000003 z M 19.858 11.862 L 18.956 12.762 C 18.716 13.002 18.419 13.18 18.097 13.278 L 18.080000000000002 13.283000000000001 L 18.074 13.299000000000001 C 17.970145032111127 13.57378580082994 17.80850226907894 13.82307031512641 17.6 14.030000000000001 L 16.698 14.930000000000001 C 16.307374916696723 15.321075731447703 15.776742590106737 15.539952566296218 15.224 15.538000000000002 C 14.381489316275044 15.541530853853066 13.620312538102699 15.0357546091057 13.297154665767092 14.257676394099555 C 12.973996793431489 13.479598179093408 13.152887826561042 12.583385204602735 13.75 11.989000000000004 L 14.652 11.089000000000002 C 14.893999999999998 10.849000000000002 15.183 10.676000000000002 15.511 10.575000000000003 L 15.527 10.570000000000002 L 15.533 10.555000000000001 C 15.638 10.278000000000002 15.798 10.032000000000002 16.008 9.821000000000002 L 16.91 8.921000000000001 C 17.300625083303277 8.5299242685523 17.83125740989326 8.311047433703784 18.384 8.313 C 18.942 8.313 19.464 8.529 19.858 8.922 C 20.252 9.314 20.468 9.836 20.468 10.392000000000001 C 20.469805650945034 10.943932471468699 20.25005118150116 11.473504717505573 19.858 11.862000000000002 z" stroke-linecap="round" />
</g>
</g>
</g>
</svg>

<svg height="1em" style="flex:none;line-height:1" viewBox="0 0 24 24" width="1em" xmlns="http://www.w3.org/2000/svg"><title>LangChain</title><path d="M8.373 14.538c.013-.06.024-.119.038-.171l.061.147c.115.283.229.564.506.723-.012.258-.334.362-.552.33-.048-.115-.115-.23-.255-.166-.143.057-.3-.01-.266-.187.333-.013.407-.377.468-.676zM18.385 9.21c-.318 0-.616.123-.839.346l-.902.9a1.18 1.18 0 00-.343.925l.006.057c.032.265.149.504.337.691.13.13.273.212.447.27a.884.884 0 01-.247.788l-.056.055a1.962 1.962 0 01-.779-.48c-.301-.3-.5-.68-.576-1.096l-.01-.058-.046.037c-.03.025-.06.052-.088.08l-.902.899a1.183 1.183 0 00.84 2.02c.304 0 .607-.116.838-.347l.902-.9a1.183 1.183 0 00-.436-1.948.972.972 0 01.276-.853c.302.103.57.27.796.495.3.3.5.679.575 1.097l.01.058.047-.037c.03-.025.06-.052.088-.08l.902-.9a1.182 1.182 0 00-.84-2.02z" fill="#1C3C3C"></path><path clip-rule="evenodd" d="M17.901 5.92H6.1C2.736 5.92 0 8.648 0 12.002c0 3.354 2.736 6.083 6.099 6.083H17.9c3.363 0 6.099-2.729 6.099-6.083S21.264 5.92 17.901 5.92zm-5.821 9.536c-.195.04-.414.047-.562-.108-.045.101-.136.078-.221.057a.755.755 0 00-.061-.014l-.026.074c-.329.022-.575-.313-.732-.565a4.959 4.959 0 00-.473-.214c-.172-.07-.345-.141-.509-.232a2.281 2.281 0 00-.004.175c-.002.248-.004.51-.227.66-.007.299.236.296.476.293.207-.002.41-.005.447.188-.016.002-.033.002-.05.002-.046 0-.092 0-.127.035-.117.113-.242.064-.372.013-.12-.047-.243-.095-.367-.02-.112.056-.191.11-.262.156a.962.962 0 01-.548.196c-.024-.036-.014-.06.006-.081a.58.58 0 00.043-.056c.019-.029.035-.058.051-.086.054-.095.103-.183.242-.223-.185-.029-.344.056-.5.14l-.004.002-.065.034c-.097.04-.154.009-.212-.024-.082-.045-.168-.093-.376.04-.04-.032-.02-.06.002-.086.091-.11.21-.127.345-.12-.351-.196-.604-.058-.81.055-.182.1-.327.179-.471-.013-.065.018-.102.064-.138.11a.612.612 0 01-.047.056c-.035-.039-.027-.084-.018-.13a.792.792 0 00.008-.056l-.027-.011c-.053-.022-.105-.044-.09-.125-.117-.04-.2.03-.286.095-.054-.042-.01-.096.032-.147.019-.024.037-.046.045-.066.038-.066.103-.068.166-.07.054 0 .108-.002.145-.042.133-.076.297-.037.462.002a1 1 0 00.354.043c.203.026.454-.182.352-.39-.186-.236-.184-.536-.183-.824v-.145c-.016-.11-.172-.236-.328-.363-.12-.097-.24-.194-.298-.284-.16-.18-.285-.387-.409-.593l-.015-.025c-.212-.409-.297-.871-.382-1.332-.103-.554-.205-1.106-.526-1.562-.266.146-.612.077-.841-.12-.12.11-.13.252-.138.403l-.001.014c-.297-.297-.26-.856-.023-1.186.097-.13.213-.237.342-.331.03-.022.04-.042.039-.075.235-1.054 1.836-.85 2.342-.104.167.209.281.448.395.687.137.287.273.573.5.806.22.24.452.469.684.698.359.354.718.708 1.032 1.104.49.596.839 1.294 1.144 1.998.05.093.08.195.11.296.044.152.089.303.2.423.026.036.084.089.149.15.156.145.357.332.289.415a.21.21 0 00.05.06c.032.03.074.06.116.09.122.088.25.18.16.253zm7.778-3.594l-.902.9c-.24.24-.537.418-.859.516l-.017.005-.006.016a2.052 2.052 0 01-.474.731l-.902.9a2.073 2.073 0 01-1.474.608 2.077 2.077 0 01-1.474-3.549l.902-.9c.242-.24.531-.413.859-.514l.016-.005.006-.015c.105-.277.265-.523.475-.734l.902-.9a2.073 2.073 0 011.474-.608c.558 0 1.08.216 1.474.609.394.392.61.914.61 1.47a2.06 2.06 0 01-.61 1.47z" fill="#1C3C3C" fill-rule="evenodd"></path></svg>
